flaticon/emoticons/afro.svg

<svg xmlns="http://www.w3.org/2000/svg" width="32" height="32" viewBox="0 0 24 24">
    <path d="M14.757812 17.480469C14.542969 17.320312 14.238281 17.363281 14.074219 17.578125 13.914062 17.792969 13.957031 18.101562 14.171875 18.261719L14.300781 18.355469C13.90625 18.804688 13.085938 19.582031 12.019531 19.746094 11.339844 19.847656 10.652344 19.671875 9.96875 19.226562L9.980469 19.21875C10.195312 19.054688 10.238281 18.75 10.078125 18.535156 9.914062 18.320312 9.609375 18.277344 9.394531 18.4375L8.4375 19.15625C8.222656 19.316406 8.179688 19.621094 8.339844 19.835938 8.4375 19.964844 8.582031 20.03125 8.730469 20.03125 8.832031 20.03125 8.9375 20 9.023438 19.933594L9.148438 19.839844C9.953125 20.441406 10.785156 20.75 11.632812 20.75 11.808594 20.75 11.988281 20.734375 12.167969 20.707031 13.578125 20.496094 14.617188 19.488281 15.082031 18.941406L15.128906 18.976562C15.21875 19.042969 15.320312 19.074219 15.421875 19.074219 15.570312 19.074219 15.714844 19.007812 15.8125 18.878906 15.972656 18.664062 15.929688 18.359375 15.714844 18.199219zM11.824219 2.820312C11.765625 2.703125 11.664062 2.617188 11.542969 2.574219 11.417969 2.53125 11.285156 2.539062 11.171875 2.597656L9.671875 3.328125C9.664062 3.332031 9.652344 3.332031 9.644531 3.335938 9.636719 3.339844 9.628906 3.347656 9.621094 3.355469L4.285156 5.960938C4.042969 6.078125 3.941406 6.371094 4.0625 6.613281L4.902344 8.335938C4.984375 8.507812 5.160156 8.609375 5.339844 8.609375 5.410156 8.609375 5.484375 8.59375 5.554688 8.558594 5.796875 8.441406 5.894531 8.148438 5.777344 7.90625L5.148438 6.625 5.996094 6.210938 6.621094 7.492188C6.707031 7.667969 6.878906 7.769531 7.0625 7.769531 7.132812 7.769531 7.207031 7.753906 7.273438 7.71875 7.515625 7.601562 7.617188 7.308594 7.5 7.066406L6.871094 5.78125 7.980469 5.242188 8.679688 6.675781C8.765625 6.847656 8.9375 6.949219 9.121094 6.949219 9.191406 6.949219 9.265625 6.933594 9.332031 6.902344 9.574219 6.78125 9.675781 6.492188 9.558594 6.25L8.855469 4.8125 9.636719 4.429688 10.261719 5.710938C10.34375 5.882812 10.519531 5.984375 10.699219 5.984375 10.769531 5.984375 10.84375 5.96875 10.914062 5.933594 11.15625 5.816406 11.253906 5.523438 11.136719 5.28125L10.511719 4.003906 11.160156 3.6875 11.785156 4.96875C11.902344 5.210938 12.195312 5.3125 12.4375 5.195312 12.679688 5.078125 12.78125 4.785156 12.660156 4.542969zM11.824219 2.820312"/>
    <path d="M 24 10.382812 C 24 5.105469 18.617188 0.808594 12 0.808594 C 5.382812 0.808594 0 5.105469 0 10.382812 C 0 12.824219 1.855469 16.035156 3.605469 17.667969 C 4.96875 20.976562 8.324219 23.191406 12 23.191406 C 15.152344 23.191406 18.351562 21.183594 19.992188 18.183594 C 22.207031 16.332031 24 12.855469 24 10.382812 Z M 4.5 11.195312 C 4.5 10.738281 4.496094 10.351562 4.496094 10.070312 L 19.125 10.070312 C 19.125 10.4375 19.125 11 19.125 11.667969 C 16.996094 10.746094 14.515625 10.859375 12.476562 12.019531 L 11.324219 12.019531 L 11.324219 12.0625 L 11.265625 12.027344 C 9.1875 10.839844 6.65625 10.738281 4.5 11.714844 C 4.5 11.535156 4.5 11.355469 4.5 11.195312 Z M 13.816406 14.003906 C 13.910156 14.097656 14.035156 14.148438 14.160156 14.148438 C 14.285156 14.148438 14.410156 14.097656 14.507812 14.003906 L 15.597656 12.914062 C 15.785156 12.722656 15.785156 12.414062 15.597656 12.226562 C 15.511719 12.140625 15.402344 12.097656 15.289062 12.089844 C 15.9375 12.003906 16.59375 12.019531 17.238281 12.125 C 17.183594 12.148438 17.132812 12.179688 17.085938 12.226562 L 15.269531 14.042969 C 15.078125 14.234375 15.078125 14.539062 15.269531 14.730469 C 15.363281 14.828125 15.488281 14.875 15.613281 14.875 C 15.738281 14.875 15.863281 14.828125 15.960938 14.730469 L 17.777344 12.914062 C 17.964844 12.726562 17.964844 12.429688 17.785156 12.238281 C 18.242188 12.355469 18.691406 12.519531 19.121094 12.738281 C 19.085938 14 18.777344 14.796875 17.585938 14.925781 C 15.839844 15.113281 14.59375 14.890625 13.886719 14.253906 C 13.480469 13.886719 13.253906 13.390625 13.207031 12.734375 C 13.789062 12.4375 14.410156 12.242188 15.046875 12.132812 C 14.996094 12.15625 14.949219 12.183594 14.90625 12.226562 L 13.816406 13.316406 C 13.625 13.503906 13.625 13.8125 13.816406 14.003906 Z M 5.226562 14.003906 C 5.324219 14.097656 5.445312 14.148438 5.570312 14.148438 C 5.695312 14.148438 5.820312 14.097656 5.917969 14.003906 L 7.007812 12.914062 C 7.199219 12.722656 7.199219 12.414062 7.007812 12.226562 C 6.921875 12.140625 6.8125 12.097656 6.699219 12.089844 C 7.347656 12.003906 8.003906 12.019531 8.648438 12.125 C 8.59375 12.148438 8.542969 12.179688 8.496094 12.226562 L 6.679688 14.042969 C 6.488281 14.234375 6.488281 14.539062 6.679688 14.730469 C 6.777344 14.828125 6.902344 14.875 7.027344 14.875 C 7.148438 14.875 7.273438 14.828125 7.371094 14.730469 L 9.1875 12.914062 C 9.375 12.726562 9.375 12.429688 9.195312 12.238281 C 9.652344 12.355469 10.097656 12.515625 10.523438 12.734375 C 10.476562 13.390625 10.25 13.886719 9.84375 14.253906 C 9.136719 14.890625 7.894531 15.113281 6.144531 14.925781 C 4.953125 14.796875 4.648438 14 4.609375 12.738281 C 5.195312 12.4375 5.820312 12.242188 6.457031 12.132812 C 6.40625 12.15625 6.359375 12.183594 6.316406 12.226562 L 5.226562 13.316406 C 5.035156 13.503906 5.035156 13.8125 5.226562 14.003906 Z M 12 22.214844 C 8.707031 22.214844 5.707031 20.234375 4.496094 17.28125 C 4.5 16.65625 4.5 15.953125 4.5 15.234375 C 4.851562 15.570312 5.339844 15.820312 6.039062 15.894531 C 6.464844 15.941406 6.867188 15.964844 7.242188 15.964844 C 8.675781 15.964844 9.765625 15.632812 10.492188 14.980469 C 11.046875 14.484375 11.375 13.816406 11.472656 12.996094 L 12.253906 12.996094 C 12.355469 13.816406 12.679688 14.484375 13.234375 14.980469 C 13.964844 15.632812 15.054688 15.964844 16.484375 15.964844 C 16.863281 15.964844 17.265625 15.941406 17.691406 15.894531 C 18.320312 15.828125 18.78125 15.617188 19.125 15.328125 C 19.125 16.171875 19.125 17.003906 19.125 17.742188 C 17.644531 20.421875 14.796875 22.214844 12 22.214844 Z M 20.097656 9.539062 C 20.074219 9.289062 19.863281 9.097656 19.613281 9.097656 L 4.011719 9.097656 C 3.757812 9.097656 3.542969 9.292969 3.523438 9.546875 C 3.523438 9.570312 3.523438 9.570312 3.523438 11.195312 C 3.523438 12.53125 3.523438 14.472656 3.523438 16.164062 C 2.183594 14.5625 0.976562 12.167969 0.976562 10.382812 C 0.976562 5.640625 5.921875 1.78125 12 1.78125 C 18.078125 1.78125 23.023438 5.640625 23.023438 10.382812 C 23.023438 12.257812 21.730469 14.988281 20.101562 16.742188 C 20.101562 14.304688 20.101562 9.605469 20.097656 9.539062 Z M 20.097656 9.539062"/>
</svg>

<svg xmlns="http://www.w3.org/2000/svg" width="32" height="32" viewBox="0 0 24 24">
    <path d="M14.758 17.48a.491.491 0 0 0-.684.098.49.49 0 0 0 .098.684l.129.093c-.395.45-1.215 1.227-2.281 1.391-.68.102-1.368-.074-2.051-.52l.011-.007a.491.491 0 0 0 .098-.684.491.491 0 0 0-.683-.098l-.957.72a.486.486 0 1 0 .585.777l.125-.094c.805.601 1.637.91 2.485.91.176 0 .355-.016.535-.043 1.41-.21 2.45-1.219 2.914-1.766l.047.036a.489.489 0 0 0 .684-.098.486.486 0 0 0-.098-.68zm0 0M11.824 2.82a.498.498 0 0 0-.281-.246.47.47 0 0 0-.371.024l-1.5.73c-.008.004-.02.004-.027.008a.104.104 0 0 0-.024.02L4.285 5.96a.484.484 0 0 0-.223.652l.84 1.723a.486.486 0 1 0 .875-.43l-.629-1.281.848-.414.625 1.281a.489.489 0 1 0 .879-.426l-.629-1.285 1.11-.539.699 1.434a.492.492 0 0 0 .652.226.49.49 0 0 0 .227-.652l-.704-1.438.782-.382.625 1.28a.486.486 0 1 0 .875-.429l-.625-1.277.648-.316.625 1.28a.49.49 0 0 0 .652.227.484.484 0 0 0 .223-.652zm0 0"/>
    <path d="M24 10.383C24 5.105 18.617.809 12 .809S0 5.105 0 10.383c0 2.441 1.855 5.652 3.605 7.285 1.364 3.309 4.72 5.523 8.395 5.523 3.152 0 6.352-2.007 7.992-5.007C22.207 16.332 24 12.855 24 10.383zm-19.5.812c0-.457-.004-.843-.004-1.125h14.629v1.598a7.48 7.48 0 0 0-6.648.352h-1.153v.043l-.058-.036a7.467 7.467 0 0 0-6.766-.312v-.52zm9.316 2.809a.489.489 0 0 0 .344.144c.125 0 .25-.05.348-.144l1.09-1.09a.49.49 0 0 0 0-.687.476.476 0 0 0-.309-.137 6.653 6.653 0 0 1 1.95.035.473.473 0 0 0-.153.102l-1.816 1.816a.483.483 0 0 0 0 .687.488.488 0 0 0 .691 0l1.816-1.816a.483.483 0 0 0 .008-.676c.457.117.906.282 1.336.5-.035 1.262-.344 2.059-1.535 2.188-1.746.187-2.992-.035-3.7-.672-.406-.367-.632-.863-.679-1.52a6.435 6.435 0 0 1 1.84-.601.466.466 0 0 0-.14.094l-1.09 1.09a.483.483 0 0 0 0 .687zm-8.59 0a.496.496 0 0 0 .344.144c.125 0 .25-.05.348-.144l1.09-1.09a.483.483 0 0 0-.309-.824 6.653 6.653 0 0 1 1.95.035.473.473 0 0 0-.153.102L6.68 14.043a.488.488 0 1 0 .691.688l1.817-1.817a.483.483 0 0 0 .007-.676c.457.117.903.278 1.328.496-.046.657-.273 1.153-.68 1.52-.706.637-1.948.86-3.698.672-1.192-.13-1.497-.926-1.536-2.188a6.41 6.41 0 0 1 1.848-.605.466.466 0 0 0-.14.094l-1.09 1.09a.483.483 0 0 0 0 .687zM12 22.214c-3.293 0-6.293-1.98-7.504-4.933.004-.625.004-1.328.004-2.047.352.336.84.586 1.54.66.425.047.827.07 1.202.07 1.434 0 2.524-.331 3.25-.984.555-.496.883-1.164.98-1.984h.782c.101.82.426 1.488.98 1.984.73.653 1.82.985 3.25.985.38 0 .782-.024 1.207-.07.63-.067 1.09-.278 1.434-.567v2.414c-1.48 2.68-4.328 4.473-7.125 4.473zM20.098 9.54a.488.488 0 0 0-.485-.441H4.012a.49.49 0 0 0-.489.449V16.165C2.183 14.562.977 12.167.977 10.382.977 5.64 5.922 1.78 12 1.78c6.078 0 11.023 3.86 11.023 8.602 0 1.875-1.293 4.605-2.921 6.36 0-2.438 0-7.138-.004-7.204zm0 0"/>
</svg>
